X:0651
T:There's nae luck about the House.
M:2/4
L:1/8
Q:1/4=104
I: ||
Z:Jack Campin * www.campin.me.uk * 2009
K:D
B|dBAF|G>GGB|dBAF|E2 zB|dBAF |GGGB |A>GFE|D3
B|dBAF|G>GGB|dBAF|E3  B|dBAF |G>ABd|A>GFE|D2D
E|F2FD|G>FGE|F2FD|E2 zA|F>FFD|G>GGB|AGFE |D3|]

